symbols/web/drive_folder_upload/materialsymbolssharp/drive_folder_upload_wght300gradN25_20px.svg

<svg xmlns="http://www.w3.org/2000/svg" height="20" width="20"><path d="M9.375 13.75h1.25v-3.521l1.521 1.521.875-.896L10 7.833l-3.021 3.021.896.875 1.5-1.5ZM2.25 16.125V4.292h6.396L10 5.625h7.75v10.5Zm1.25-1.25h13v-8H9.479L8.146 5.542H3.5Zm0 0V5.542v1.333Z"/></svg>

<svg xmlns="http://www.w3.org/2000/svg" height="20" width="20"><path d="M9.375 13.75H10.625V10.229L12.146 11.75L13.021 10.854L10 7.833L6.979 10.854L7.875 11.729L9.375 10.229ZM2.25 16.125V4.292H8.646L10 5.625H17.75V16.125ZM3.5 14.875H16.5V6.875H9.479L8.146 5.542H3.5ZM3.5 14.875V5.542V6.875Z"/></svg>
